X:1
T:The Ring Goes South
C:Howard Shore
Z:Merecraft of Laurelin
Q:1/4=118
M:4/4
L:1/8
K:C
E/B/e/g/ ^f4 |B,2 d4 |e6 |A6 |E/B/e/g/ ^f4 |^C2 G4 |A2 G2 A2 |_B2 G4 |
G8 |C4 D3 C/D/ |E2 (A4 A/)E/A/B/ |c4 B2 GA/B/ |d3 F/E/ D3 c/d/ |e4 g4 |a8 |
A2A,2 E2A,A |G2G,2 C2G,G |A2A,2 E2A,2 |z2 A,2 E2 de |f2C2 F2 e d |c2G,2 A,2 d e |d2B,2 E2B,2 |c2C2 B2E2 |A2A,2 E2A,/A/ z |G2G,2 C2GG |A2A,2 E2A,2 |z2 A,2 E2 d e |f2C2 F2 e f |g2E2 G2 f g |a4 E4 |D8 |
^F8 |B8 |B,8 |G,8 |B,8 |]
%End of file
